docs/_static/sponsors/Polar.svg

<svg width="1020" height="300" viewBox="0 0 1020 300" fill="none" xmlns="http://www.w3.org/2000/svg">
<path d="M397.382 244.212V53.4181H473.428C483.421 53.4181 492.508 55.962 500.684 61.0499C508.861 65.956 515.311 72.77 520.036 81.492C524.942 90.214 527.395 99.9354 527.395 110.656C527.395 121.74 524.942 131.735 520.036 140.638C515.311 149.542 508.861 156.629 500.684 161.898C492.508 167.167 483.421 169.802 473.428 169.802H421.096V244.212H397.382ZM421.096 146.634H473.972C479.424 146.634 484.33 145.09 488.692 142.001C493.052 138.73 496.505 134.369 499.049 128.918C501.593 123.467 502.865 117.379 502.865 110.656C502.865 104.115 501.593 98.3 499.049 93.2122C496.505 88.1244 493.052 84.0359 488.692 80.9468C484.33 77.8578 479.424 76.3133 473.972 76.3133H421.096V146.634Z" fill="#0062FF"/>
<path d="M615.217 246.937C601.226 246.937 588.688 243.757 577.604 237.397C566.701 230.856 558.071 222.043 551.711 210.959C545.351 199.693 542.171 186.883 542.171 172.528C542.171 158.173 545.351 145.453 551.711 134.369C558.071 123.284 566.701 114.563 577.604 108.203C588.688 101.843 601.226 98.6634 615.217 98.6634C629.209 98.6634 641.656 101.843 652.559 108.203C663.643 114.563 672.274 123.284 678.452 134.369C684.811 145.453 687.991 158.173 687.991 172.528C687.991 186.883 684.811 199.693 678.452 210.959C672.274 222.043 663.643 230.856 652.559 237.397C641.656 243.757 629.209 246.937 615.217 246.937ZM615.217 225.677C624.848 225.677 633.389 223.406 640.838 218.863C648.288 214.139 654.103 207.779 658.283 199.784C662.644 191.789 664.733 182.704 664.552 172.528C664.733 162.352 662.644 153.358 658.283 145.544C654.103 137.549 648.288 131.28 640.838 126.737C633.389 122.195 624.848 119.923 615.217 119.923C605.587 119.923 596.956 122.195 589.324 126.737C581.874 131.28 576.059 137.549 571.88 145.544C567.701 153.539 565.612 162.534 565.612 172.528C565.612 182.704 567.701 191.789 571.88 199.784C576.059 207.779 581.874 214.139 589.324 218.863C596.956 223.406 605.587 225.677 615.217 225.677Z" fill="#0062FF"/>
<path d="M712.897 244.212V42.5156H735.792V244.212H712.897Z" fill="#0062FF"/>
<path d="M826.119 246.937C813.945 246.937 802.86 243.757 792.866 237.397C783.054 230.856 775.241 221.952 769.426 210.686C763.612 199.421 760.704 186.701 760.704 172.528C760.704 158.173 763.702 145.453 769.698 134.369C775.695 123.284 783.69 114.563 793.684 108.203C803.86 101.843 815.217 98.6634 827.754 98.6634C835.204 98.6634 842.019 99.7537 848.196 101.934C854.556 104.115 860.189 107.204 865.096 111.201C870.001 115.017 874.09 119.56 877.361 124.829C880.631 129.917 882.811 135.368 883.902 141.184L877.906 138.457L878.178 101.662H901.073V244.212H878.178V209.597L883.902 206.598C882.63 211.867 880.177 216.955 876.542 221.862C873.09 226.768 868.729 231.128 863.46 234.944C858.372 238.579 852.648 241.486 846.288 243.666C839.928 245.846 833.206 246.937 826.119 246.937ZM831.57 225.404C840.838 225.404 849.014 223.134 856.1 218.591C863.188 214.048 868.821 207.87 873 200.057C877.179 192.061 879.269 182.885 879.269 172.528C879.269 162.352 877.179 153.358 873 145.544C869.002 137.731 863.369 131.552 856.1 127.01C849.014 122.467 840.838 120.196 831.57 120.196C822.303 120.196 814.126 122.467 807.04 127.01C799.953 131.552 794.32 137.731 790.14 145.544C786.143 153.358 784.145 162.352 784.145 172.528C784.145 182.704 786.143 191.789 790.14 199.784C794.32 207.779 799.953 214.048 807.04 218.591C814.126 223.134 822.303 225.404 831.57 225.404Z" fill="#0062FF"/>
<path d="M930.49 244.212V101.662H953.386L953.931 141.728L951.478 134.914C953.476 128.191 956.747 122.104 961.29 116.652C965.832 111.201 971.193 106.84 977.371 103.569C983.73 100.299 990.454 98.6634 997.54 98.6634C1000.63 98.6634 1003.54 98.936 1006.26 99.4811C1009.17 99.8446 1011.53 100.39 1013.35 101.116L1007.08 126.464C1004.72 125.375 1002.27 124.556 999.721 124.012C997.177 123.467 994.814 123.194 992.634 123.194C986.82 123.194 981.46 124.284 976.553 126.464C971.829 128.645 967.74 131.644 964.288 135.46C961.017 139.093 958.383 143.364 956.383 148.27C954.567 153.176 953.658 158.446 953.658 164.078V244.212H930.49Z" fill="#0062FF"/>
<path fill-rule="evenodd" clip-rule="evenodd" d="M64.8636 269.177C130.906 313.882 220.684 296.585 265.388 230.543C310.094 164.501 292.798 74.723 226.756 30.0179C160.714 -14.6872 70.935 2.60972 26.2299 68.6516C-18.4753 134.693 -1.17834 224.472 64.8636 269.177ZM84.0172 270.357C144.43 301.264 221.064 272.251 255.187 205.557C289.309 138.861 267.997 59.7378 207.584 28.8301C147.173 -2.0774 70.5375 26.9345 36.4152 93.63C2.29299 160.325 23.6051 239.448 84.0172 270.357Z" fill="#0062FF"/>
<path fill-rule="evenodd" clip-rule="evenodd" d="M101.233 286.13C155.766 303.879 219.918 256.991 244.522 181.401C269.124 105.812 244.86 30.146 190.327 12.3967C135.794 -5.35246 71.6428 41.5362 47.04 117.126C22.4374 192.715 46.7007 268.381 101.233 286.13ZM117.915 280.385C164.066 290.229 213.97 239.649 229.378 167.414C244.784 95.1779 219.862 28.6392 173.71 18.7955C127.559 8.95174 77.6556 59.5307 62.2482 131.767C46.841 204.002 71.7639 270.541 117.915 280.385Z" fill="#0062FF"/>
<path fill-rule="evenodd" clip-rule="evenodd" d="M130.567 292.297C167.056 296.192 203.471 235.332 211.903 156.36C220.336 77.3886 197.592 10.2109 161.104 6.3148C124.616 2.41866 88.2006 63.2795 79.7681 142.251C71.3357 221.222 94.0792 288.401 130.567 292.297ZM147.642 268.26C174.048 267.843 194.616 214.386 193.58 148.861C192.546 83.3351 170.299 30.5544 143.893 30.9716C117.486 31.3889 96.9186 84.8459 97.9538 150.372C98.9891 215.897 121.235 268.677 147.642 268.26Z" fill="#0062FF"/>
</svg>

<svg xmlns="http://www.w3.org/2000/svg" xml:space="preserve" style="fill-rule:evenodd;clip-rule:evenodd;stroke-linejoin:round;stroke-miterlimit:2" viewBox="0 0 3000 1000"><path d="M397.382 244.212V53.418h76.046q14.99 0 27.256 7.632 12.265 7.359 19.352 20.442 7.359 13.083 7.359 29.164 0 16.627-7.359 29.982-7.087 13.356-19.352 21.26t-27.256 7.904h-52.332v74.41zm23.714-97.578h52.876q8.178 0 14.72-4.633 6.54-4.906 10.357-13.083t3.816-18.262q0-9.812-3.816-17.444-3.817-7.632-10.357-12.265-6.543-4.634-14.72-4.634h-52.876zM615.217 246.937q-20.987 0-37.613-9.54-16.354-9.812-25.893-26.438-9.54-16.899-9.54-38.431 0-21.533 9.54-38.159 9.54-16.627 25.893-26.166 16.626-9.54 37.613-9.54 20.988 0 37.342 9.54 16.626 9.54 25.893 26.166 9.539 16.626 9.539 38.159t-9.539 38.431q-9.267 16.626-25.893 26.438-16.354 9.54-37.342 9.54m0-21.26q14.447 0 25.621-6.814 11.175-7.086 17.445-19.079 6.541-11.992 6.269-27.256.272-15.263-6.269-26.984-6.27-11.992-17.445-18.807-11.174-6.814-25.621-6.814-14.445 0-25.893 6.814-11.175 6.815-17.444 18.807-6.268 11.993-6.268 26.984 0 15.264 6.268 27.256 6.269 11.993 17.444 19.079 11.448 6.814 25.893 6.814M712.897 42.516h22.895v201.696h-22.895zM826.119 246.937q-18.262 0-33.253-9.54-14.718-9.812-23.44-26.711-8.721-16.898-8.722-38.158 0-21.533 8.994-38.159 8.995-16.627 23.986-26.166 15.264-9.54 34.07-9.54 11.176 0 20.442 3.271 9.54 3.271 16.9 9.267a51.7 51.7 0 0 1 12.265 13.628q4.905 7.631 6.541 16.355l-5.996-2.727.272-36.795h22.895v142.55h-22.895v-34.615l5.724-2.999q-1.908 7.904-7.36 15.264-5.178 7.359-13.082 13.082-7.632 5.452-17.172 8.722t-20.169 3.271m5.451-21.533q13.901 0 24.53-6.813 10.632-6.815 16.9-18.534 6.269-11.994 6.269-27.529 0-15.263-6.269-26.984-5.997-11.72-16.9-18.534-10.629-6.814-24.53-6.814-13.9 0-24.53 6.814t-16.9 18.534q-5.995 11.72-5.995 26.984t5.995 27.256q6.27 11.993 16.9 18.807t24.53 6.813M930.49 244.212v-142.55h22.896l.545 40.066-2.453-6.814q2.997-10.084 9.812-18.262 6.813-8.177 16.081-13.083 9.54-4.906 20.169-4.906c3.09 0 6 .273 8.72.818 2.91.364 5.27.909 7.09 1.635l-6.27 25.348a35 35 0 0 0-7.359-2.452q-3.817-.818-7.087-.818-8.72 0-16.081 3.27-7.086 3.272-12.265 8.996-4.906 5.45-7.905 12.81-2.725 7.36-2.725 15.808v80.134z" style="fill:#0062ff;fill-rule:nonzero" transform="matrix(2.6385 0 0 2.69122 161.299 97.4)"/><path d="M64.864 269.177c66.042 44.705 155.82 27.408 200.524-38.634 44.706-66.042 27.41-155.82-38.632-200.525S70.935 2.61 26.23 68.652c-44.705 66.041-27.408 155.82 38.634 200.525m19.153 1.18c60.413 30.907 137.047 1.894 171.17-64.8 34.122-66.696 12.81-145.819-47.603-176.727-60.411-30.907-137.046-1.895-171.169 64.8-34.122 66.695-12.81 145.818 47.602 176.727" style="fill:#0062ff" transform="matrix(2.6385 0 0 2.69122 161.299 97.4)"/><path d="M101.233 286.13c54.533 17.749 118.685-29.139 143.289-104.729 24.602-75.589.338-151.255-54.195-169.004S71.643 41.536 47.04 117.126c-24.603 75.589-.339 151.255 54.193 169.004m16.682-5.745c46.151 9.844 96.055-40.736 111.463-112.971 15.406-72.236-9.516-138.775-55.668-148.618-46.151-9.844-96.054 40.735-111.462 112.971-15.407 72.235 9.516 138.774 55.667 148.618" style="fill:#0062ff" transform="matrix(2.6385 0 0 2.69122 161.299 97.4)"/><path d="M130.567 292.297c36.489 3.895 72.904-56.965 81.336-135.937 8.433-78.971-14.311-146.149-50.799-150.045S88.201 63.28 79.768 142.251s14.311 146.15 50.799 150.046m17.075-24.037c26.406-.417 46.974-53.874 45.938-119.399-1.034-65.526-23.281-118.307-49.687-117.889-26.407.417-46.974 53.874-45.939 119.4 1.035 65.525 23.281 118.305 49.688 117.888" style="fill:#0062ff" transform="matrix(2.6385 0 0 2.69122 161.299 97.4)"/></svg>
